metawallet-ui/public/i/icons/round-language.svg

<svg fill="none" height="22" width="22" xmlns="http://www.w3.org/2000/svg"><path d="m.807 6.761c-.151.303-.252.606-.353.909h1.716l-1.363-.91zm20.386 8.477c.151-.302.252-.605.353-.958h-1.766l1.413.959zm-18.013 3.532c1.261 1.262 2.775 2.22 4.541 2.776v-5.753l-4.542 2.977zm4.49-18.316a11.403 11.403 0 0 0 -4.54 2.776l4.54 3.027zm13.825 7.216a6.747 6.747 0 0 0 -.354-.909l-1.412.909zm-7.215 13.876a11.402 11.402 0 0 0 4.542-2.775l-4.542-3.028zm-13.826-7.216c.101.303.202.656.353.96l1.413-.96zm18.368-11.1c-1.262-1.262-2.776-2.22-4.542-2.776v5.803z" fill="#01247d"/><path d="m21.848 12.918h-8.931v8.93c.454-.1.908-.201 1.362-.353v-5.752l4.542 3.028c.504-.505.958-1.06 1.362-1.665l-4.188-2.776h2.624l2.27 1.514c.101-.202.152-.353.253-.555l-1.413-.959h1.766c.151-.454.252-.908.353-1.412zm-14.178-12.464v5.803l-4.54-3.027c-.506.504-.96 1.06-1.363 1.665l4.238 2.825h-2.624l-2.32-1.564-.303.606 1.412.908h-1.715c-.152.454-.253.908-.353 1.362h8.93v-8.93c-.453.15-.908.251-1.362.352zm-7.519 12.463c.101.455.202.909.354 1.363h1.765l-1.413.959c.252.656.605 1.261.959 1.816l4.188-2.775h1.716v.605l-4.995 3.33c.151.203.303.354.504.556l4.542-3.028v5.752c.454.152.908.253 1.362.354v-8.931h-8.982zm21.345-5.247h-1.715l1.413-.908a8.32 8.32 0 0 0 -1.01-1.867l-4.238 2.825h-1.616v-.656l4.995-3.33c-.15-.151-.302-.303-.454-.504l-4.54 3.027v-5.803c-.455-.151-.91-.252-1.363-.353v8.931h8.93c-.15-.454-.251-.908-.403-1.362z" fill="#fff"/><g fill="#cf142b"><path d="m21.849 9.083h-8.932v-8.933c-.605-.099-1.261-.15-1.917-.15s-1.312.05-1.917.151v8.932h-8.933c-.099.605-.15 1.261-.15 1.917s.05 1.312.151 1.917h8.932v8.932c.605.1 1.261.151 1.917.151s1.312-.05 1.917-.151v-8.932h8.932c.1-.605.151-1.261.151-1.917s-.05-1.312-.151-1.917z"/><path d="m16.046 14.33 4.188 2.776c.252-.404.505-.808.706-1.262l-2.27-1.514zm-1.767-6.66h1.615l4.238-2.826a6.568 6.568 0 0 0 -.908-1.16l-4.995 3.33v.656zm-6.61 6.66h-1.715l-4.188 2.776c.252.403.555.807.857 1.16l4.996-3.33v-.606zm-1.614-6.66-4.238-2.826c-.253.404-.505.808-.707 1.262l2.321 1.564z"/></g></svg>

<svg width="22" height="22" fill="none" xmlns="http://www.w3.org/2000/svg"><path d="M.807 6.761c-.151.303-.252.606-.353.909H2.17L.807 6.76zm20.386 8.477c.151-.302.252-.605.353-.958H19.78l1.413.959zM3.18 18.77c1.261 1.262 2.775 2.22 4.541 2.776v-5.753L3.179 18.77zM7.67.454A11.403 11.403 0 0 0 3.13 3.23L7.67 6.257V.454zM21.495 7.67a6.747 6.747 0 0 0-.354-.909l-1.412.909h1.766zM14.28 21.546a11.402 11.402 0 0 0 4.542-2.775l-4.542-3.028v5.803zM.454 14.33c.101.303.202.656.353.96l1.413-.96H.454zm18.368-11.1C17.56 1.968 16.046 1.01 14.28.454v5.803l4.542-3.027z" fill="#01247D"/><path d="M21.848 12.918h-8.931v8.93c.454-.1.908-.201 1.362-.353v-5.752l4.542 3.028c.504-.505.958-1.06 1.362-1.665l-4.188-2.776h2.624l2.27 1.514c.101-.202.152-.353.253-.555l-1.413-.959h1.766c.151-.454.252-.908.353-1.412zM7.67.454v5.803L3.13 3.23c-.506.504-.96 1.06-1.363 1.665L6.005 7.72H3.381l-2.32-1.564-.303.606 1.412.908H.455c-.152.454-.253.908-.353 1.362h8.93V.102c-.453.15-.908.251-1.362.352zM.151 12.917c.101.455.202.909.354 1.363H2.27l-1.413.959c.252.656.605 1.261.959 1.816l4.188-2.775H7.72v.605l-4.995 3.33c.151.203.303.354.504.556l4.542-3.028v5.752c.454.152.908.253 1.362.354v-8.931H.151zM21.496 7.67h-1.715l1.413-.908a8.32 8.32 0 0 0-1.01-1.867L15.946 7.72H14.33v-.656l4.995-3.33c-.15-.151-.302-.303-.454-.504l-4.54 3.027V.454c-.455-.151-.91-.252-1.363-.353v8.931h8.93c-.15-.454-.251-.908-.403-1.362z" fill="#fff"/><path d="M21.849 9.083h-8.932V.15C12.312.051 11.656 0 11 0c-.656 0-1.312.05-1.917.151v8.932H.15C.051 9.688 0 10.344 0 11c0 .656.05 1.312.151 1.917h8.932v8.932c.605.1 1.261.151 1.917.151.656 0 1.312-.05 1.917-.151v-8.932h8.932c.1-.605.151-1.261.151-1.917 0-.656-.05-1.312-.151-1.917z" fill="#CF142B"/><path d="M16.046 14.33l4.188 2.776c.252-.404.505-.808.706-1.262l-2.27-1.514h-2.624zm-1.767-6.66h1.615l4.238-2.826a6.568 6.568 0 0 0-.908-1.16l-4.995 3.33v.656h.05zm-6.61 6.66H5.954l-4.188 2.776c.252.403.555.807.857 1.16l4.996-3.33v-.606h.05zM6.055 7.67L1.817 4.844c-.253.404-.505.808-.707 1.262L3.431 7.67h2.624z" fill="#CF142B"/></svg>
